svg/fluentui-system-icons/ic_fluent_square_arrow_forward_24_filled.svg

<svg width="24" height="24" viewBox="0 0 24 24" fill="none" xmlns="http://www.w3.org/2000/svg">
<path d="M6.25 3C4.45507 3 3 4.45507 3 6.25V17.75C3 19.5449 4.45507 21 6.25 21H12.0218C11.375 19.9897 11 18.7886 11 17.5C11 13.9101 13.9101 11 17.5 11C18.7886 11 19.9897 11.375 21 12.0218V6.25C21 4.45507 19.5449 3 17.75 3H6.25ZM12 17.5C12 20.5376 14.4624 23 17.5 23C20.5376 23 23 20.5376 23 17.5C23 14.4624 20.5376 12 17.5 12C14.4624 12 12 14.4624 12 17.5ZM18.6464 15.3536C18.4512 15.1583 18.4512 14.8417 18.6464 14.6464C18.8417 14.4512 19.1583 14.4512 19.3536 14.6464L20.8536 16.1464C21.0488 16.3417 21.0488 16.6583 20.8536 16.8536L19.3536 18.3536C19.1583 18.5488 18.8417 18.5488 18.6464 18.3536C18.4512 18.1583 18.4512 17.8417 18.6464 17.6464L19.2929 17H17.25C16.0074 17 15 18.0074 15 19.25V19.5C15 19.7761 14.7761 20 14.5 20C14.2239 20 14 19.7761 14 19.5V19.25C14 17.4551 15.4551 16 17.25 16H19.2929L18.6464 15.3536Z" fill="#212121"/>
</svg>

<svg xmlns="http://www.w3.org/2000/svg" width="24" height="24"><path d="M6.25 3A3.25 3.25 0 0 0 3 6.25v11.5A3.25 3.25 0 0 0 6.25 21h5.772A6.5 6.5 0 0 1 21 12.022V6.25A3.25 3.25 0 0 0 17.75 3H6.25ZM12 17.5a5.5 5.5 0 1 0 11 0 5.5 5.5 0 0 0-11 0Zm6.646-2.146a.5.5 0 0 1 .708-.708l1.5 1.5a.5.5 0 0 1 0 .708l-1.5 1.5a.5.5 0 0 1-.708-.708l.647-.646H17.25A2.25 2.25 0 0 0 15 19.25v.25a.5.5 0 0 1-1 0v-.25A3.25 3.25 0 0 1 17.25 16h2.043l-.647-.646Z"/></svg>
